elements/calendar/img/menu-play.svg

<svg xmlns="http://www.w3.org/2000/svg" viewBox="0 0 100.144 100.144" enable-background="new 0 0 100.144 100.144"><g><circle cx="50.072" cy="50.072" r="50.072" fill="#83CE00"/><g><path d="M28.41 27.963c-.03.028-.06.055-.088.083l.082-.076.006-.007zM34.423 65.587C22.375 53.54 19.62 36.757 28.27 28.097c-.003.002-.007.005-.01.01-12.052 12.05-12.05 31.592 0 43.643 12.054 12.054 31.593 12.053 43.646 0l.01-.01c-8.66 8.65-25.442 5.898-37.493-6.153z" fill="#FFD400"/><path d="M71.905 28.105C59.94 16.14 40.6 16.06 28.527 27.852c.013-.012.027-.02.04-.033 8.736-8.322 25.288-5.507 37.21 6.414C77.7 46.158 80.51 62.708 72.19 71.444c-.01.013-.02.027-.033.04 11.79-12.072 11.712-31.412-.255-43.38z" fill="#00A9E7"/><path d="M49.976 81.073l.12-.003h-.008c-.038 0-.074.002-.112.003z" fill="#FFD400"/><path d="M49.915 81.075l.062-.002-.072.002h.01zM28.277 28.088l-.007.007c.017-.017.035-.032.052-.05-.014.016-.03.03-.045.043z" fill="#E64436"/><path d="M44.148 55.863C32.154 43.87 25.138 31.423 28.404 27.97l-.082.076c-.017.017-.035.032-.052.05-8.65 8.66-5.896 25.443 6.152 37.49C46.474 77.638 63.255 80.39 71.915 71.74l.05-.052.075-.082c-3.45 3.268-15.896-3.746-27.892-15.743z" fill="#00A9E7"/><path d="M56.392 43.618c11.924 11.924 18.922 24.287 15.8 27.826 8.32-8.737 5.508-25.287-6.416-37.21-11.92-11.92-28.473-14.736-37.21-6.415 3.54-3.124 15.905 3.877 27.826 15.798z" fill="#FFD400"/><path d="M28.448 27.918c-.014.014-.024.03-.037.045.04-.038.08-.073.118-.11-.026.022-.056.04-.08.065zM50.155 81.075c.035 0 .07-.008.103-.01-.054.002-.107.005-.16.005.02 0 .038.005.057.005zM50.088 81.07h.01c.053 0 .106-.003.16-.004.017 0 .034-.004.05-.005-.073.003-.146.008-.22.01zM28.566 27.82c-.013.01-.027.02-.04.032-.038.038-.077.073-.116.11l-.006.008c.053-.052.11-.1.162-.15z" fill="#00A9E7"/><path d="M44.148 55.863c11.996 11.997 24.44 19.01 27.893 15.744.053-.053.1-.11.152-.162 3.123-3.54-3.876-15.903-15.8-27.826-11.92-11.923-24.286-18.924-27.826-15.8-.054.05-.11.098-.162.15-3.267 3.452 3.75 15.9 15.744 27.893z" fill="#E64436"/><path d="M66.387 23.805c6.082 5.213 9.95 12.936 9.95 21.573 0 15.698-12.724 28.42-28.42 28.42-15.556 0-28.175-12.5-28.4-28.004-.185 1.365-.314 2.75-.314 4.168 0 17.047 13.817 30.862 30.862 30.862S80.927 67.01 80.927 49.962c0-11.042-5.82-20.705-14.54-26.157z" opacity=".15"/></g></g></svg>

<?xml version="1.0" encoding="iso-8859-1"?>
<!-- Generator: Adobe Illustrator 18.0.0, SVG Export Plug-In . SVG Version: 6.00 Build 0)  -->
<!DOCTYPE svg PUBLIC "-//W3C//DTD SVG 1.1//EN" "http://www.w3.org/Graphics/SVG/1.1/DTD/svg11.dtd">
<svg version="1.1" xmlns="http://www.w3.org/2000/svg" xmlns:xlink="http://www.w3.org/1999/xlink" x="0px" y="0px"
	 viewBox="0 0 100.144 100.144" style="enable-background:new 0 0 100.144 100.144;" xml:space="preserve">
<g id="_x31_4-play">
	<circle style="fill:#83CE00;" cx="50.072" cy="50.072" r="50.072"/>
	<g id="New_Symbol_29">
		<path style="fill:#FFD400;" d="M28.41,27.963c-0.029,0.028-0.059,0.055-0.088,0.083c0.027-0.026,0.055-0.05,0.082-0.076
			C28.406,27.968,28.408,27.965,28.41,27.963z"/>
		<path style="fill:#FFD400;" d="M34.423,65.587C22.375,53.539,19.621,36.756,28.27,28.096c-0.003,0.003-0.007,0.006-0.01,0.01
			C16.208,40.158,16.209,59.699,28.26,71.75c12.054,12.054,31.593,12.053,43.646,0c0.003-0.003,0.006-0.007,0.01-0.01
			C63.255,80.39,46.474,77.638,34.423,65.587z"/>
		<path style="fill:#00A9E7;" d="M71.905,28.105C59.941,16.141,40.599,16.06,28.527,27.852c0.013-0.012,0.027-0.021,0.039-0.033
			c8.737-8.321,25.289-5.506,37.21,6.415c11.924,11.924,14.736,28.474,6.416,37.21c-0.011,0.013-0.021,0.027-0.033,0.039
			C83.951,59.412,83.872,40.072,71.905,28.105z"/>
		<path style="fill:#FFD400;" d="M49.976,81.073c0.041,0,0.08-0.003,0.121-0.003c-0.003,0-0.006-0.001-0.009-0.001
			C50.05,81.069,50.014,81.072,49.976,81.073z"/>
		<path style="fill:#E64436;" d="M49.915,81.075c0.021,0,0.041-0.002,0.062-0.002c-0.024,0-0.048,0.002-0.072,0.002
			C49.908,81.074,49.911,81.075,49.915,81.075z"/>
		<path style="fill:#E64436;" d="M28.277,28.088c-0.003,0.003-0.005,0.005-0.007,0.007c0.017-0.017,0.035-0.032,0.052-0.049
			C28.308,28.061,28.292,28.074,28.277,28.088z"/>
		<path style="fill:#00A9E7;" d="M44.148,55.863C32.154,43.869,25.137,31.422,28.404,27.97c-0.027,0.026-0.055,0.05-0.082,0.076
			c-0.017,0.017-0.035,0.032-0.052,0.049c-8.649,8.66-5.896,25.444,6.152,37.491C46.474,77.638,63.255,80.39,71.915,71.74
			c0.017-0.017,0.033-0.035,0.049-0.052c0.026-0.027,0.05-0.055,0.076-0.082C68.589,74.874,56.144,67.86,44.148,55.863z"/>
		<path style="fill:#FFD400;" d="M56.392,43.618c11.924,11.924,18.922,24.287,15.8,27.826c8.321-8.737,5.508-25.287-6.416-37.21
			c-11.921-11.921-28.473-14.736-37.21-6.415C32.106,24.696,44.471,31.697,56.392,43.618z"/>
		<path style="fill:#00A9E7;" d="M28.448,27.918c-0.014,0.014-0.024,0.031-0.037,0.045c0.038-0.038,0.078-0.073,0.117-0.111
			C28.502,27.875,28.472,27.894,28.448,27.918z"/>
		<path style="fill:#00A9E7;" d="M50.155,81.075c0.035,0,0.069-0.008,0.103-0.009c-0.054,0.001-0.107,0.004-0.161,0.004
			C50.117,81.07,50.136,81.075,50.155,81.075z"/>
		<path style="fill:#00A9E7;" d="M50.088,81.069c0.003,0,0.006,0.001,0.009,0.001c0.054,0,0.107-0.003,0.161-0.004
			c0.017-0.001,0.034-0.004,0.051-0.005C50.235,81.063,50.162,81.068,50.088,81.069z"/>
		<path style="fill:#00A9E7;" d="M28.566,27.819c-0.013,0.011-0.027,0.021-0.039,0.033c-0.039,0.038-0.078,0.073-0.117,0.111
			c-0.002,0.002-0.004,0.005-0.006,0.007C28.457,27.918,28.513,27.87,28.566,27.819z"/>
		<path style="fill:#E64436;" d="M44.148,55.863C56.144,67.86,68.589,74.874,72.041,71.607c0.052-0.053,0.1-0.109,0.151-0.162
			c3.123-3.539-3.876-15.903-15.8-27.826C44.471,31.697,32.106,24.696,28.566,27.819c-0.054,0.051-0.109,0.099-0.162,0.151
			C25.137,31.422,32.154,43.869,44.148,55.863z"/>
		<path style="opacity:0.15;" d="M66.387,23.805c6.082,5.213,9.95,12.936,9.95,21.573c0,15.698-12.724,28.421-28.42,28.421
			c-15.556,0-28.175-12.501-28.4-28.005c-0.185,1.365-0.314,2.75-0.314,4.168c0,17.047,13.817,30.862,30.862,30.862
			s30.862-13.815,30.862-30.862C80.927,38.92,75.107,29.257,66.387,23.805z"/>
	</g>
</g>
<g id="Layer_1">
</g>
</svg>
